!!!!SEGMENT: pl-wn--sd-xvi-qu-273--135_gomolka-mikolaj--o-sludzy-panscy-ze-wszech-naswietszemu.krn
!!!cenid: 15xx:340
!!!COM: Gomółka, Mikołaj
!!!COM-rismid: pe30013343
!!!CDT: ~1535->1591/04/30
!!!CNT: Polish
!!!GTL: Melodiae na psalterz polski
!!!OTL: CXXXV. O słudzy Pańscy, ze wszech naświętszemu
!!!PDT: 1580
!!!AGN: Sacred
!!!SMS-siglum: PL-Wn
!!!SMS-shelfmark: SD XVI.Qu.273
!!!SMS-shelfwork: 135 G
!!!NIFC-rismid:
!!!ONB-nifc: Melodiae na psalterz polski
**kern	**text	**kern	**text	**kern	**text	**kern	**text
*part4	*part4	*part3	*part3	*part2	*part2	*part1	*part1
*staff4	*staff4	*staff3	*staff3	*staff2	*staff2	*staff1	*staff1
*clefF4	*	*clefC3	*	*clefC3	*	*clefC1	*
*k[b-]	*	*k[b-]	*	*k[b-]	*	*k[b-]	*
*F:	*	*F:	*	*F:	*	*F:	*
*M4/2	*	*M4/2	*	*M4/2	*	*M4/2	*
*met(C|)	*	*met(C|)	*	*met(C|)	*	*met(C|)	*
=1	=1	=1	=1	=1	=1	=1	=1
*>A	*	*	*	*	*	*	*
1D	O	1A	O	1d	O	1f	O
2G	słu-	2B-	słu-	2d	słu-	2g/	słu-
2C	-dӡy	2c/	-dӡy	2e	-dӡy	2g/	-dӡy
=2-	=2	=2	=2	=2	=2	=2	=2
2F	páń-	2c/	páń-	2f	páń-	1a	páń
1D	-ʃcy/	2d	-ʃcy/	2.f	-ʃcy/	.	.
.	.	2d	.	.	.	2a	ʃcy/
.	.	.	.	4g	.	.	.
2AA	ʒe	2e	ʒe	2a	ʒe	2.cc	ʒe
=3-	=3	=3	=3	=3	=3	=3	=3
2D/	wʃᴣech	2.f	wʃᴣech	2.d	wʃᴣech	.	.
.	.	.	.	.	.	4b-	wʃᴣech
2D/	na-	.	.	.	.	1a	na-
.	.	4e	na	4c/	na	.	.
1G	-święt-	4d	.	4B-	.	.	.
.	.	4c	.	4A	.	.	.
.	.	2B-	święt-	2B-	święt-	2g	-święt-
=4-	=4	=4	=4	=4	=4	=4	=4
2F	-ʃᴣe-	2A	-ʃᴣe-	2c/	-ʃᴣe-	2a	-ʃᴣe-
2FF	-mu	2c/	-mu	2A	-mu	2.f	-mu
2BB-	Cześć	2B-	Cześć	2d	Cześć	.	.
.	.	.	.	.	.	4g/	Cześć
2FF	i-	2A	i-	2c/	i-	2a	i-
!!LO:PB:g=original
=5-	=5	=5	=5	=5	=5	=5	=5
4GG	-mie-	1G	-mie_nio-	4B-	-mie	2b-	-mie-
4AA	.	.	.	4c/	.	.	.
4BB-	nio-	.	.	4d	nio-	2b-	-nio-
4C	.	.	.	4e	.	.	.
4D/	wi	4F	-wi	2f	wi	2a	-wi
4E	.	4G	.	.	.	.	.
4F	u-	4A	u-	4d	u-	1a	u-
4G	.	4B-	.	4e	.	.	.
=6-	=6	=6	=6	=6	=6	=6	=6
4A	.	4c/	.	4f	.	.	.
4G	.	4B-	.	4e	.	.	.
2F	cӡyń-	4A	cӡyń-	2d	cӡyń-	2a	cӡyń-
.	.	4F	.	.	.	.	.
2E	-ćie	2G	ćie	2c/	-ćie	2g/	-ćie
2D/	páń-	4A	páń-	4d	páń-	1f	páń-
.	.	4F	.	4B-	.	.	.
=7-	=7	=7	=7	=7	=7	=7	=7
1C	-ʃťie-	4G	ʃťie-	2.c/	ʃťie	.	.
.	.	4A	.	.	.	.	.
.	.	2G	.	.	.	2e	ʃťie-
.	.	.	.	4B-	.	.	.
!	!	!'ogonek po lewej stronie'	!	!	!	!	!
!!LO:N:vis=00
1FF/	-mu.	1F/	mu.	1A	mu.	1f/	-mu.
=	==	==	==	==	==	==	==
*-	*-	*-	*-	*-	*-	*-	*-
!!!RDF**kern: l = terminal long
!!!system-decoration: s1,s2,s3,s4
!!!ENC:Anna Matuszewska
!!!EMD:2020-02-22
!!!URL-scan: https://polona.pl/item/melodiae-na-psalterz-polski,Nzk3MTM4ODQ/315 Scan on Polona
!!!IIIF: https://polona.pl/iiif/item/Nzk3MTM4ODQ/manifest.json
